X: 1103
T: The Scotch-man's Dance, in The Northern Lass.
%R: march, reel
B: Henry Playford "Apollo's Banquet", London 1687 (5th Edition)
F: https://archive.org/details/apollosbanquetco01rugg
Z: 2017 John Chambers <jc:trillian.mit.edu>
M: C|
L: 1/8
K: G
% - - - - - - - - - -
B2 |\
GGG2 G4 | A3A A2E2 | GGG2 B4 | G3G G2D2 |\
GFGA BGAB | AGAB AGAE | GFGA BGAB | GFGD B,A,B,G, |
GFG2 d4 | cBcd c3c | BAB2 e4 | A3A A2E2 |\
GFGA B2AB | G2D2B,2G,2 | GFGA dcde | cBcd cdcA |
BABd edeB | A3A A2E2 | GGG2 B4 | G3G G2b2 |\
ggg2 g2b2 | a3a a2e2 | ggg2 g2b2 | g3fg2d2 |
gfga b2ag | a3a a2e2 | gfga b2ab | g3e g2d2 |\
e2g2 d2e2 | B2d2 A2D2 | g3d e3c | (dc)(BA) G2D2 |]
% - - - - - - - - - -

%%sep 1 1 500
%%sep 1 1 500

